X:4
T:Tomas Haards schottis
R:schottis
C:Tomas Haard
Z:i Stoten, track 4; 2000 Brian Wilson
M:2/4
L:1/8
K:D
|: "D"d2 A2 "G"B2 G2 | "A"AG EG "D"F2 D2
| "A"A^G Ac "Bm"d3 f | "E"ed cd "A"e2 A2
| "D"d2 A2 "G"B2 G2 | "A"AG EG "D"F2 D2
| "D"Ad fa "A"ag ec | "D"ef/e/ "A"dc "D"d4 :|
| "D"f2 f2 "A"ec Ac | "G"dB GB "D"B2 A2
| "A"AB AF "Em"G2 (E2 | "none"A)(B"A"A)G "D"F2 D2
| "D"f2 f2 "A"ec Ac | "G"dB GB "D"B2 A2
| "D"Ac df "A"ag ec | "D"ef/e/ "A"dc "D"d4 :|
